assets/img/braze_icons/at-sign.svg

<svg fill="none" height="24" viewBox="0 0 24 24" width="24" xmlns="http://www.w3.org/2000/svg"><path clip-rule="evenodd" d="m14.4999 1.28845c-2.4177-.564216-4.95518-.293976-7.19982.76678-2.24465 1.06076-4.06445 2.84965-5.1635 5.07579-1.09906 2.22615-1.412722 4.75858-.89 7.18568.52272 2.427 1.85109 4.6058 3.76911 6.1821 1.91802 1.5764 4.31288 2.4575 6.79521 2.5002 2.4823.0427 4.906-.7556 6.8771-2.2651.4385-.3358.5217-.9634.1859-1.4019s-.9634-.5217-1.4019-.1859c-1.6127 1.235-3.5958 1.8881-5.6267 1.8532-2.03102-.0349-3.99045-.7559-5.55974-2.0456s-2.65613-3.0724-3.08381-5.0581c-.42769-1.9858-.17105-4.0578.72818-5.8792.89922-1.82139 2.38815-3.28502 4.22468-4.15292 1.83653-.86789 3.91269-1.08899 5.89079-.62736 1.9781.46164 3.7419 1.57886 5.0045 3.17001 1.2627 1.59114 1.95 3.56267 1.9501 5.59397v.9999c0 .5304-.2107 1.0391-.5858 1.4142s-.8838.5858-1.4142.5858-1.0391-.2107-1.4142-.5858-.5858-.8838-.5858-1.4142v-5.00001c0-.55228-.4477-1-1-1-.5522 0-.9998.44753-1 .99965-.8357-.62769-1.8744-.99964-3-.99964-2.76142 0-5 2.23858-5 5 0 2.7614 2.23858 5 5 5 1.4881 0 2.8244-.6501 3.7403-1.6817.1284.1806.2725.3513.4313.5101.7501.7502 1.7675 1.1716 2.8284 1.1716s2.0783-.4214 2.8284-1.1716c.7502-.7501 1.1716-1.7675 1.1716-2.8284v-1.0001c-.0002-2.48264-.8402-4.89225-2.3834-6.83699-1.5433-1.94474-3.699-3.31023-6.1167-3.87446zm.5001 10.70735v.0084c-.0023 1.6549-1.3445 2.9958-3 2.9958-1.6569 0-3-1.3431-3-3s1.3431-3 3-3c1.6555 0 2.9977 1.3409 3 2.9958z" fill="#801ed7" fill-rule="evenodd"/></svg>

<svg width="24" height="24" viewBox="0 0 24 24" fill="none" xmlns="http://www.w3.org/2000/svg">
<path fill-rule="evenodd" clip-rule="evenodd" d="M14.4999 1.28845C12.0822 0.724234 9.54472 0.994474 7.30008 2.05523C5.05543 3.11599 3.23563 4.90488 2.13658 7.13102C1.03752 9.35717 0.723858 11.8896 1.24658 14.3167C1.7693 16.7437 3.09767 18.9225 5.01569 20.4988C6.93371 22.0752 9.32857 22.9563 11.8109 22.999C14.2932 23.0417 16.7169 22.2434 18.688 20.7339C19.1265 20.3981 19.2097 19.7705 18.8739 19.332C18.5381 18.8935 17.9105 18.8103 17.472 19.1461C15.8593 20.3811 13.8762 21.0342 11.8453 20.9993C9.81428 20.9644 7.85485 20.2434 6.28556 18.9537C4.71627 17.664 3.62943 15.8813 3.20175 13.8956C2.77406 11.9098 3.0307 9.8378 3.92993 8.0164C4.82915 6.19501 6.31808 4.73138 8.15461 3.86348C9.99114 2.99559 12.0673 2.77449 14.0454 3.23612C16.0235 3.69776 17.7873 4.81498 19.0499 6.40613C20.3126 7.99727 20.9999 9.9688 21 12.0001V13C21 13.5304 20.7893 14.0391 20.4142 14.4142C20.0391 14.7893 19.5304 15 19 15C18.4696 15 17.9609 14.7893 17.5858 14.4142C17.2107 14.0391 17 13.5304 17 13V7.99999C17 7.44771 16.5523 6.99999 16 6.99999C15.4478 6.99999 15.0002 7.44752 15 7.99964C14.1643 7.37195 13.1256 7 12 7C9.23858 7 7 9.23858 7 12C7 14.7614 9.23858 17 12 17C13.4881 17 14.8244 16.3499 15.7403 15.3183C15.8687 15.4989 16.0128 15.6696 16.1716 15.8284C16.9217 16.5786 17.9391 17 19 17C20.0609 17 21.0783 16.5786 21.8284 15.8284C22.5786 15.0783 23 14.0609 23 13V11.9999C22.9998 9.51726 22.1598 7.10765 20.6166 5.16291C19.0733 3.21817 16.9176 1.85268 14.4999 1.28845ZM15 11.9958V12.0042C14.9977 13.6591 13.6555 15 12 15C10.3431 15 9 13.6569 9 12C9 10.3431 10.3431 9 12 9C13.6555 9 14.9977 10.3409 15 11.9958Z" fill="#801ED7"/>
</svg>
